X: 150
T: Willy Reilly
N:"Moderate" "collected by F. O'Neill"
B:O'Neill's 150
Z:Transcribed by henrik.norbeck@mailbox.swipnet.se
M:2/4
L:1/8
K:A
(3EFG|A>G AB|cd ec|dc AF|=G2 (3EF^G|
A>G AB|cd ec|dc A>A|A3||
(d/e/)|f>e fa|=gf ec|dc AF|=G2 (3EF^G|
A>G AB|cd ec|dc A>A|A3||


